X: 3085
T: EAST KILBRIDE
C: A. M. Volti
Q:"Strathspey."
R: Strathspey.
%R:strathspey
B: James Kerr "Merry Melodies" v.3 p.11 #85
Z: 2016 John Chambers <jc:trillian.mit.edu>
M: C
L: 1/8
K: A
ue>ud |\
vc<uA vF>uA vE>vAuE>uC | (3EFG (3ABc B2e>d |\
c<A E>A F>AE>A | (3FGA (3GAB A2 ::\
c>d |\
e<c d>e f<d B>f |
(3ge^d (3efg a2(f>g) |\
[1 a>f g>e f>d e>c | (3dcB (3cBA B2 :|\
[2 a>gf>e f>ed>c | (3Bfe (3dcB A2 |]

%%sep 1 1 500
%%sep 1 1 500

